Sources/FrostedUI/Resources/Icons.xcassets/collapseSidebar20.imageset/collapse-sidebar-20.svg

<svg width="20" height="20" viewBox="0 0 20 20" fill="none" xmlns="http://www.w3.org/2000/svg" data-fui-icon="true">
  <path
    d="M14.5 2C16.9853 2 19 4.01472 19 6.5V13.5C19 15.9853 16.9853 18 14.5 18H5.5C3.01472 18 1 15.9853 1 13.5V6.5C1 4.01472 3.01472 2 5.5 2H14.5ZM5.5 3.5C3.84315 3.5 2.5 4.84315 2.5 6.5V13.5C2.5 15.1569 3.84315 16.5 5.5 16.5H7V3.5H5.5ZM8.5 16.5H14.5C16.1569 16.5 17.5 15.1569 17.5 13.5V6.5C17.5 4.84315 16.1569 3.5 14.5 3.5H8.5V16.5Z"
    fill="currentColor"
  />
</svg>

<svg xmlns="http://www.w3.org/2000/svg" width="20" height="20" fill="none" data-fui-icon="true" viewBox="0 0 20 20"><path fill="currentColor" d="M14.5 2A4.5 4.5 0 0 1 19 6.5v7a4.5 4.5 0 0 1-4.5 4.5h-9A4.5 4.5 0 0 1 1 13.5v-7A4.5 4.5 0 0 1 5.5 2zm-9 1.5a3 3 0 0 0-3 3v7a3 3 0 0 0 3 3H7v-13zm3 13h6a3 3 0 0 0 3-3v-7a3 3 0 0 0-3-3h-6z"/></svg>
